**kern	**kern
*staff2	*staff1
*clefF4	*clefG2
*k[]	*k[]
*M3/4	*M3/4
=-	=-
4r	4g 4ee
=2	=2
[2.c 2.C	2g 2ee
.	4e 4cc
=3	=3
2c] 2C	2a 2ff
4c 4C	4g 4ee
=4	=4
*^	*
2G	[2.C	2g 2ee
4B	.	4f 4dd
=5	=5	=5
4c	2C]	2e 2cc
4r	.	.
*v	*v	*
4c	4e 4cc
=6	=6
2B	2g 2dd
4c	4g 4cc 4ee
=7	=7
2F	4a 4dd 4ff
.	2a 2dd 2ff
4D	.
=8	=8
2G	[2.g [2.b [2.dd
4GG	.
=9	=9
4G	4g] 4b] 4dd]
4r	4r
*END	*END
**kern	**kern
*staff2	*staff1
*clefF4	*clefG2
*k[]	*k[]
*M3/4	*M3/4
=-	=-
4r	4b 4dd
=	=
2.G	2b 2dd
.	4b 4dd
=11	=11
2.A	2e 2a 2cc
.	4e 4a 4cc
=12	=12
4D	2.d [2.f# [2.a
4F#	.
4A	.
=13	=13
4d	2f#] 2a]
4A	.
4F# 4c	4dd
=14	=14
2G 2B	2b
4B 4d	4g
=15	=15
2E 2e	2g 2cc
4C 4c	4g 4ee
=16	=16
2D 2d	2g 2b
4D 4c	4f# 4a
=17	=17
2.G 2.B	2.g
=	=
*END	*END
**kern	**kern
*staff2	*staff1
*clefF4	*clefG2
*k[]	*k[]
*M3/4	*M3/4
=18	=18
2G	4b 4dd
.	4cc 4ee
4F	4dd 4ff
=19	=19
4E	2ee 2gg
4F	.
4G	4ee 4gg
=20	=20
2.A	4ee 4gg
.	4dd 4ff
.	4cc# 4ee
=21	=21
4D	2.dd 2.ff
4E	.
4F	.
=22	=22
2.G	4dd 4ff
.	4b 4dd
.	4b 4dd
=23	=23
4GG	2.dd 2.ff
4AA	.
4BB	.
=24	=24
4C	4g 4cc 4ee
4E	4e 4g 4cc
4C	4e 4g 4cc
=25	=25
2G	2g 2b 2dd
=	=
*END	*END
**kern	**kern
*staff2	*staff1
*clefF4	*clefG2
*k[]	*k[]
*M3/4	*M3/4
=-	=-
4r	4g 4ee
=26	=26
[2.c [2.C	2g 2ee
.	4e 4cc
=27	=27
2c] 2C]	2a 2ff
4c 4C	4g 4ee
=28	=28
*^	*
2G	[2.C	2g 2ee
4B	.	4f 4dd
=29	=29	=29
2c	2C]	2e 2cc
*v	*v	*
4E	4g 4cc
=30	=30
2F	4a 4dd
.	2a 2dd 2ff
4D	.
=31	=31
*	*^
2G	2dd	2.f 2.b
4GG	4ee	.
*	*v	*v
=32	=32
4C	[2.e [2.g [2.cc
4GG	.
4EE	.
=33	=33
4CC	4e] 4g] 4cc]
4r	4r
=	=
*END	*END
**kern	**kern
*staff2	*staff1
*clefG2	*clefG2
*k[]	*k[]
*M3/4	*M3/4
=-	=-
4r	4ee
=35	=35
*^	*
2g	2.c	(8dd#L
.	.	8eeJ
.	.	8ffL
.	.	8eeJ
4e	.	8ddL
.	.	8ccJ
=36	=36	=36
2a	2.c	8ggL
.	.	8ffJ
.	.	8eeL
.	.	8ffJ
4g	.	8dd#L
.	.	8eeJ
=37	=37	=37
2g	[2.c	8ffL
.	.	8eeJ
.	.	8dd#L
.	.	8eeJ
4f	.	8cc#L
.	.	8ddJ
=38	=38	=38
4e	4c]	8bL
.	.	8ccJ
*v	*v	*
4r	8ddL
.	8ccJ
4r	8bL
.	8ccJ)
=39	=39
4r	(8cc#L
.	8ddJ
(4b	8eeL
.	8ddJ
4cc	8ffL
.	8eeJ
=40	=40
4a	8ggL
.	8ffJ
4e	8aaL
.	8gg#J
4f)	8bbL
.	8aaJ
=41	=41
*clefF4	*
*^	*
(4A	2.F	8dddL
.	.	8ccc#J
4d	.	8eeeL
.	.	8dddJ
4f)	.	8fffL
.	.	8dddJ)
=42	=42	=42
(4e	2G	(4ccc
4d)	.	4bb)
=	=
*END	*END
**kern	**kern
*staff2	*staff1
*clefG2	*clefG2
*k[]	*k[]
*M3/4	*M3/4
=-	=-
4r	4ddd
=43	=43
2g 2b	(8ccc#L
.	8dddJ
.	8eeeL
.	8dddJ
4g# 4b	8cccL
.	8bbJ
=44	=44
2a 2cc	8dddL
.	8cccJ
.	8bbL
.	8aaJ
4a 4cc	8ggL
.	8ff#J
=45	=45
2.f# 2.a	8eeL
.	8ddJ
.	8cc#L
.	8ddJ
.	8eeL
.	8ccJ
=46	=46
4r	8bL
.	8aJ
4d 4f#	8g#L
.	8aJ
4c 4d 4f#	8bL
.	8ccJ)
=47	=47
*^	*
(4B	2.B	(8ddL
.	.	8cc#J
4d	.	8eeL
.	.	8ddJ
[4g	.	8aaL
.	.	8ggJ)
=48	=48	=48
4g]	2.c	(8eeL
.	.	8dd#J
4g#	.	8ff#L
.	.	8eeJ
4a)	.	8ddd#L
.	.	8eeeJ)
=49	=49	=49
4r	2d	(8ccc#L
.	.	8dddJ
(4b	.	8bbL
.	.	8ggJ
4cc)	4d	8ff#L
.	.	8ddJ)
=50	=50	=50
*v	*v	*
4b 4g	4gg
4r 4G	4r
=	=
*END	*END
**kern	**kern
*staff2	*staff1
*clefG2	*clefG2
*k[]	*k[]
*M3/4	*M3/4
=-	=-
4r	(8gL
.	8ggJ)
=51	=51
(4g	(8bL
.	8ggJ
4e	8cc#L
.	8ggJ
4d	8ddL
.	8ggJ)
=52	=52
4c#)	(8eeL
.	8ggJ
4r	8ff#L
.	8ggJ
4r	8aaL
.	8ggJ)
*clefF4	*
=53	=53
2.C# 2.A	8r
.	(8bb-
.	8aaL
.	8ggJ
.	8ffL
.	8eeJ)
=54	=54
4D 4A	(8ggL
.	8ffJ
4r	8eeL
.	8ffJ
4r	8ggL
.	8ffJ)
*clefG2	*
=55	=55
(4f	(8aL
.	8ffJ
4d	8bL
.	8ffJ
4c	8ccL
.	8ffJ)
=56	=56
4B)	(8ddL
.	8ffJ
4r	8eeL
.	8ffJ
4B 4g	8ggL
.	8ffJ)
=57	=57
4c 4g	8r
.	8ee
4B 4g	8r
.	8dd
4A 4f#	8r
.	8cc
=58	=58
4g 4G	8r
.	(8b
4r 4r	8ccL
.	8cc#J
4r 4r	8ddL
.	8dd#J)
=	=
*END	*END
**kern	**kern
*staff2	*staff1
*clefG2	*clefG2
*k[]	*k[]
*M3/4	*M3/4
=59	=59
2g	2.c	(8eeL
.	.	8ddJ
.	.	8ffL
.	.	8eeJ
4e	.	8ddL
.	.	8ccJ)
=60	=60	=60
2a	2.c	(8ggL
.	.	8ffJ
.	.	8eeL
.	.	8ffJ
4g	.	8dd#L
.	.	8eeJ)
=61	=61	=61
2g	[2.c	(8ffL
.	.	8eeJ
.	.	8dd#L
.	.	8eeJ
4f	.	8cc#L
.	.	8ddJ
=62	=62	=62
4e	4c]	8bL
.	.	8ccJ
4r	4r	8ddL
.	.	8ccJ
4r	4r	8bL
.	.	8ccJ
*clefF4	*clefF4	*
*v	*v	*
=63	=63
4r	8cc#L
.	8ddJ
(4B	8eeL
.	8ddJ
4c)	8ffL
.	8eeJ
=64	=64
*^	*
(4A	2.F	8ggL
.	.	8ffJ
4d	.	8gg#L
.	.	8aaJ
[4f)	.	8ffL
.	.	8ddJ
=65	=65	=65
4f]	2.G	8ccL
.	.	8bJ
(8fL	.	8aL
8eJ	.	8gJ
8fL	.	8aL
8dJ)	.	8bJ)
=66	=66	=66
4e	4c	4cc
4r	4r	4r
*v	*v	*
*END	*END
**kern	**kern
*staff2	*staff1
*clefF4	*clefG2
*k[]	*k[]
*M3/4	*M3/4
=-	=-
4r	12eL
.	12g
.	12eeJ
=68	=68
*^	*
4CC	2.CC	12eL
.	.	12g
.	.	12eeJ
4C	.	12d#L
.	.	12f#
.	.	12dd#J
4C	.	12eL
.	.	12g
.	.	12eeJ
=69	=69	=69
4CC	2.CC	12eL
.	.	12g#
.	.	12eeJ
4C	.	12fL
.	.	12a
.	.	12ffJ
4C	.	12eL
.	.	12g
.	.	12eeJ
=70	=70	=70
4CC	2.CC	12eL
.	.	12g
.	.	12eeJ
4C	.	12d#L
.	.	12f#
.	.	12dd#J
4C	.	12dL
.	.	12f
.	.	12ddJ
=71	=71	=71
4CC	2.CC	12BL
.	.	12d#
.	.	12bJ
4C	.	12cL
.	.	12e
.	.	12ccJ
4C	.	12cL
.	.	12e
.	.	12ccJ
*v	*v	*
=72	=72
4BB'	12dL
.	12g
.	12ddJ
4r	12d#L
.	12g
.	12dd#J
4C'	12eL
.	12g
.	12eeJ
=73	=73
4AA'	12fL
.	12cc
.	12ffJ
4r	12f#L
.	12cc
.	12ff#J
4EE'	12gL
.	12cc
.	12ggJ
=74	=74
4FF'	12g#L
.	12cc
.	12gg#J
4r	12aL
.	12cc
.	12aaJ
4FF'	12fnL
.	12dd
.	12ffJ
=75	=75
4GG	4d 4b 4dd
4G	4r
=	=
*END	*END
**kern	**kern
*staff2	*staff1
*clefF4	*clefG2
*k[]	*k[]
*M3/4	*M3/4
=-	=-
4r	12dL
.	12b
.	12ddJ
=76	=76
4B	12dL
.	12g
.	12ddJ
4r	12ddL
.	12gg
.	12dddJ
4B	12r
.	12gL
.	12ddJ
=77	=77
4A	12eL
.	12g
.	12ccJ
4r	12ccL
.	12gg
.	12cccJ
4A	12r
.	12gL
.	12ccJ
=78	=78
4D	12f#L
.	12a
.	12ccJ
4r	12ddL
.	12ff#
.	12aaJ
4r	12cccL
.	12bb
.	12aaJ
=79	=79
2r	12ggL
.	12ff#
.	12eeJ
.	12ddL
.	12cc#
.	12eeJ
(4F#	12ddL
.	12ee
.	12ccJ
=80	=80
4G)	12bL
.	12dd
.	12ccJ
4r	12bL
.	12a
.	12gJ
(4BB	12f#L
.	12e
.	12dJ
=81	=81
4C)	12cL
.	12e
.	12dJ
*	*clefF4
4r	12cL
.	12B
.	12AJ
(4CC	12GL
.	12F#
.	12EJ
=82	=82
4DD)	12DL
.	12G
.	12BJ
4D	12dL
.	12B
.	12GJ
4D	12cL
.	12A
.	12F#J
=83	=83
4GG	12r
.	12GL
.	12BJ
*	*clefG2
4r	12dL
.	12g
.	12bJ
=	=
*END	*END
**kern	**kern
*staff2	*staff1
*clefF4	*clefG2
*k[]	*k[]
*M3/4	*M3/4
=-	=-
(4G	12ddL
.	12b
.	12gJ
=84	=84
4Fn')	12dL
.	12b
.	12ddJ
4E'	12eL
.	12cc#
.	12eeJ
4D'	12fL
.	12dd
.	12ffJ
=85	=85
4C#'	12gL
.	12ee
.	12ggJ
4r	12f#L
.	12dd#
.	12ff#J
4r	12gL
.	12ee
.	12ggJ
=86	=86
4AA	12gL
.	12ee
.	12ggJ
4A	12fnL
.	12dd
.	12ffJ
4A	12eL
.	12cc#
.	12eeJ
=87	=87
4D	12fL
.	12dd
.	12ffJ
4r	12eL
.	12cc#
.	12eeJ
4r	12fL
.	12dd
.	12ffJ
=88	=88
*^	*
4G	4BB	12fL
.	.	12dd
.	.	12ffJ
4G	4D	12dL
.	.	12b
.	.	12ddJ
4G	4F	12dL
.	.	12b
.	.	12ddJ
=89	=89	=89
4G	4BB	12fL
.	.	12dd
.	.	12ffJ
4r	4r	12eL
.	.	12cc#
.	.	12eeJ
4G	4BB	12fL
.	.	12dd
.	.	12ffJ
=90	=90	=90
4G	4C	12eL
.	.	12g
.	.	12eeJ
4G	4BB	12dL
.	.	12g
.	.	12ddJ
4G	4AA	12cnL
.	.	12f#
.	.	12ccJ
=91	=91	=91
4G	4GG	12bL
.	.	12cc
.	.	12cc#J
4r	4r	12ddL
.	.	12cc
.	.	12bJ
4r	4r	12aL
.	.	12g
.	.	12fJ
*v	*v	*
=92	=92
*END	*END
**kern	**kern
*staff2	*staff1
*clefF4	*clefG2
*k[]	*k[]
*M3/4	*M3/4
=	=
*^	*
4CC	2.CC	12eL
.	.	12g
.	.	12eeJ
4C	.	12d#L
.	.	12f#
.	.	12dd#J
4C	.	12eL
.	.	12g
.	.	12eeJ
=93	=93	=93
4CC	2.CC	12eL
.	.	12g#
.	.	12eeJ
4C	.	12fL
.	.	12a
.	.	12ffJ
4C	.	12eL
.	.	12g
.	.	12eeJ
=94	=94	=94
4CC	2.CC	12eL
.	.	12g
.	.	12eeJ
4C	.	12d#L
.	.	12f#
.	.	12dd#J
4C	.	12dL
.	.	12f
.	.	12ddJ
=95	=95	=95
4CC	2.CC	12BL
.	.	12d#
.	.	12bJ
4C	.	12cL
.	.	12e
.	.	12ccJ
4C	.	12cL
.	.	12e
.	.	12ccJ
*v	*v	*
=96	=96
4BB'	12c#L
.	12g
.	12cc#J
4r	12dL
.	12g
.	12ddJ
4C'	12eL
.	12g
.	12eeJ
=97	=97
4AA'	12fL
.	12cc
.	12ffJ
4r	12f#L
.	12cc
.	12ff#J
4EE'	12gL
.	12cc
.	12ggJ
=98	=98
4FF'	12g#L
.	12cc
.	12gg#J
4r	12aL
.	12cc
.	12aaJ
4GG'	12dL
.	12f
.	12bJ
=99	=99
4CC 4C	4e 4cc
4r	4r
=	=
*END	*END
**kern	**kern
*staff2	*staff1
*clefF4	*clefG2
*k[]	*k[]
*M3/4	*M3/4
=-	=-
4r	4gg' 4eee'
=101	=101
16r	4gg' 4eee'
(16CCLL	.
16DD	.
16EEJJ	.
16FFLL	4r
16GG	.
16AA	.
16BBJJ)	.
8C'L	4ee' 4ccc'
8C'J	.
=102	=102
16r	4aa' 4fff'
(16CLL	.
16D	.
16EJJ	.
16FLL	4r
16G	.
16A	.
16BJJ)	.
8c'L	4gg' 4eee'
8c'J	.
*clefG2	*
=103	=103
16r	4gg' 4eee'
(16cLL	.
16d	.
16eJJ	.
16fLL	4r
16g	.
16a	.
16bJJ)	.
8cc'L	4ff' 4ddd'
8cc'J	.
=104	=104
4cc'	16ee 16ccc
.	(16ccLL
.	16dd
.	16eeJJ
4r	16ffLL
.	16gg
.	16aa
.	16bbJJ)
4e' 4g'	8ccc'L
.	8ccc'J
=105	=105
4f' 4a'	16r
.	(16ddLL
.	16ee
.	16ffJJ
4r	16ggLL
.	16aa
.	16bb
.	16ccc#JJ)
4e' 4g'	8ddd'L
.	8eee'J
=106	=106
.	16dddQ
.	16eeeQ
4d' 4f'	(8fffL
.	8eeeJ)
4r	8ddd'L
.	8eee'J
4f#' 4a'	8ccc'L
.	8ddd'J
=107	=107
4g' 4b'	(8bbL
.	8dddJ)
4r	8bb'L
.	8ccc'J
4d' 4cc'	8aa'L
.	8bb'J
=108	=108
4g' 4b'	8gg'
.	8g'L
4r	8b'
.	8dd'J
4r	8gg'L
.	8bb'J
=	=
*END	*END
**kern	**kern
*staff2	*staff1
*clefF4	*clefG2
*k[]	*k[]
*M3/4	*M3/4
=109	=109
16r	4dd' 4bb' 4ddd'
(16GGLL	.
16AA	.
16BBJJ	.
16CLL	4r
16D	.
16E	.
16F#JJ)	.
8G'L	4dd' 4bb' 4ddd'
8G'J	.
=110	=110
16r	4cc' 4ee' 4ccc'
(16AALL	.
16BB	.
16CJJ	.
16DLL	4r
16E	.
16F#	.
16GJJ)	.
8A'L	4cc' 4ee' 4ccc'
8A'J	.
=111	=111
16r	4cc' 4ff#' 4aa'
(16DLL	.
16E	.
16F#JJ	.
16GLL	4r
16A	.
16B	.
16c#JJ)	.
8d'L	4r
8d'J	.
=112	=112
4d	16r
.	(16eLL
.	16f#
.	16gJJ
4r	16aLL
.	16b
.	16cc
.	16ddJJ
*clefG2	*
4c	16eeLL
.	16ff#
.	16gg
.	16aaJJ)
=113	=113
4B 4g	(16bbLL
.	16aa
.	16bb
.	16cccJJ)
4r	8ddd'L
.	8bb'J
4r	8gg'L
.	8dd'J
=114	=114
4c 4g	(16eeLL
.	16dd#
.	16ee
.	16ff#JJ)
4r	8gg'L
.	8ee'J
4r	8cc'L
.	8a'J
=115	=115
*^	*
4r	2.D	(16bLL
.	.	16a
.	.	16b
.	.	16ccJJ)
(4B	.	8dd'L
.	.	8d'J
4c)	.	8e'L
.	.	8f#'J
=116	=116	=116
4B	4G	4g
4r	4G'	4r
*v	*v	*
=	=
*END	*END
**kern	**kern
*staff2	*staff1
*clefF4	*clefG2
*k[]	*k[]
*M3/4	*M3/4
=-	=-
4r	4G'
=117	=117
(4B-	16r
.	(16gLL
.	16a
.	16b-JJ
4G	16ccLL
.	16dd
.	16ee
.	16ffJJ)
4E	8gg'L
.	8gg'J
=118	=118
4C#)	(8ggL
.	8eeJ)
4r	8cc#'L
.	8a'J
4r	8g'L
.	8e'J
=119	=119
(16AALL	4A' 4c#' 4e'
16GG#	.
16AA	.
16GG#JJ	.
16AALL	4A' 4c#' 4e'
16GG#	.
16AA	.
16GG#JJ	.
16AALL	4A' 4c#' 4e'
16GG	.
16FF	.
16EEJJ)	.
=120	=120
8DDL	4A' 4d' 4f'
(16EEL	.
16FFJJ	.
16GGLL	4r
16AA	.
16BB	.
16C#JJ	.
16DLL	4r
16E	.
16F	.
16GJJ)	.
=121	=121
(4A	16r
.	(16fLL
.	16g
.	16aJJ
4F	16bLL
.	16cc
.	16dd
.	16eeJJ)
4D	8ff'L
.	8ff'J
=122	=122
4BB)	(8ffL
.	8ddJ)
4r	8b'L
.	8g'J
4r	8f'L
.	8d'J
=123	=123
(16CLL	4G' 4c' 4e'
16BB	.
16C	.
16BBJJ	.
16CLL	4G' 4c' 4e'
16BB	.
16AA	.
16GGJJ	.
16FF#LL	4G' 4c' 4e'
16GG	.
16AA	.
16FF#JJ)	.
=124	=124
(16GGLL	4G' 4B' 4d'
16FF#	.
16GG	.
16FF#JJ	.
16GGLL	4r
16FF#	.
16GG	.
16FF#JJ	.
=	=
*END	*END
**kern	**kern
*staff2	*staff1
*clefF4	*clefG2
*k[]	*k[]
*M3/4	*M3/4
=-	=-
16GGLL	4ee' 4gg' 4eee'
16FF	.
16EE	.
16DDJJ)	.
=125	=125
16r	4ee' 4gg' 4eee'
(16CCLL	.
16DD	.
16EEJJ	.
16FFLL	4r
16GG	.
16AA	.
16BBJJ)	.
8C'L	4cc' 4ee' 4ccc'
8C'J	.
=126	=126
16r	4ff' 4aa' 4fff'
(16CLL	.
16D	.
16EJJ	.
16FLL	4r
16G	.
16A	.
16BJJ)	.
8c'L	4ee' 4gg' 4eee'
8c'J	.
=127	=127
16r	4ee' 4gg' 4eee'
*clefG2	*
(16cLL	.
16d	.
16eJJ	.
16fLL	4r
16g	.
16a	.
16bJJ)	.
8cc'L	4dd' 4ff' 4ddd'
8cc'J	.
=128	=128
4cc'	8ee'L 8ccc'
.	8gg'J
4r	8ee'L
.	8cc'J
*clefF4	*
4E' 4G'	8g'L
.	8e'J
=129	=129
4F' 4A'	16r
.	(16dLL
.	16e
.	16fJJ
4r	16gLL
.	16a
.	16b
.	16cc#JJ)
4E' 4G'	8dd'L
.	8ee'J
=130	=130
4D' 4F'	16r
.	(16ffLL
.	16gg
.	16aaJJ
4r	16bbLL
.	16ccc
.	16ddd
.	16eeeJJ)
4GG' 4D' 4F'	8fff'L
.	8bb'J
=131	=131
4C' 4E'	8ccc'L
.	8gg'J
4r	8ee'L
.	8cc'J
4r	8g'L
.	8e'J
=132	=132
2.r	4c'
.	4r
=	=
*END	*END
**kern	**kern
*staff2	*staff1
*clefG2	*clefG2
*k[b-e-a-]	*k[b-e-a-]
*M3/4	*M3/4
*c:	*c:
=-	=-
4r	4g
=134	=134
2.c 2.e-	(4g
.	4ee-
.	4cc)
=135	=135
2.c 2.f 2.a-	(4cc
.	4ff
.	4ee-
=136	=136
2.c 2.d 2.f 2.a-	4dd
.	4cc
.	4b)
=137	=137
2c 2e- 2g	(4dd
.	4cc)
4e- 4g	4cc
=138	=138
(2f 2a-	(2cc 2dd
4g 4b-	4cc 4ee
=139	=139
2a-	2cc 2ff
4e) 4g	4cc) 4gg
=140	=140
4f 4a-	(8ccL 8bb-
.	8aa-J
4r	8ggL
.	8ffJ
*^	*
4F	4f	8ee-L
.	.	8ddJ)
=141	=141	=141
(4e-	4.G	(4cc
8d)	.	8b)
8r	8r	8r
*v	*v	*
=	=
*END	*END
**kern	**kern
*staff2	*staff1
*clefF4	*clefG2
*k[b-e-a-]	*k[b-e-a-]
*M3/4	*M3/4
=-	=-
4r	([4b-
=142	=142
2.E- 2.G 2.B-	8b-L]
.	8ggJ
.	8ffL
.	8ee-J
.	8ddL
.	8ccJ)
=143	=143
2.E- 2.F 2.c	(4b-
.	4a-)
.	([4a-
=144	=144
[2.D [2.F [2.A- [2.B-	8a-L]
.	8aa-J
.	8ffL
.	8ddJ
.	8b-L
.	8a-J
=145	=145
4D] 4F] 4A-] 4B-]	8fL
.	8dJ
4r	8B-L
.	8AJ
4r	8A-L
.	8B-J
=146	=146
2.GG	8GL
.	8e-J
.	8B-L
.	8e-J
.	8BL
.	8e-J
=147	=147
2.AA-	8cL
.	8ccJ
.	8eL
.	8gJ
.	8fL
.	8a-J
=148	=148
2.BB-	8dL
.	8fJ
.	8A-L
.	8dJ
.	8A-L
.	8B-J
=149	=149
4EE-	4G) 4e-
4r	4r
=	=
*END	*END
**kern	**kern
*staff2	*staff1
*clefF4	*clefG2
*k[b-e-a-]	*k[b-e-a-]
*M3/4	*M3/4
=-	=-
4B-	4r
=150	=150
(4B-	2r
4c	.
4d-)	4e 4g
=151	=151
2d-	(4e 4g
.	4f 4a-
4d-	4g) 4b- 4ee
=152	=152
(4d-	(4g 4b- 4ee
4c	4a- 4cc 4ff
4B-)	4cc) 4ee 4gg
=153	=153
4A-	4cc 4ff 4aa-
4r	4r
4A-	4r
=154	=154
*	*^
(4A-	4r	4r
4B-	4r	4r
4B)	4dd	4f 4a-
=155	=155	=155
2B	(4dd	2f 2a-
.	4ee-	.
(4BB	4ff	4a- 4dd
*	*v	*v
=156	=156
4C	4ee- 4g 4cc
4FF	4dd 4f 4a-
4FF#)	4cc) 4e- 4a
=157	=157
4GG	4b 4d 4g
4r	4r
=	=
*END	*END
**kern	**kern
*staff2	*staff1
*clefG2	*clefG2
*k[b-e-a-]	*k[b-e-a-]
*M3/4	*M3/4
=-	=-
4r	4g
=158	=158
2.c 2.e-	(4g
.	4ee-
.	4cc)
=159	=159
2.c 2.f 2.a-	(4cc
.	4ff
.	4ee-
=160	=160
2.c 2.d 2.f 2.a-	4dd
.	4cc
.	4b)
=161	=161
2c 2e- 2g	(4dd
.	4cc)
4e- 4g	4cc
=162	=162
2f 2a-	(2cc 2dd
4g 4b-	4cc) 4ee
=163	=163
4a-	(8ccL 8ff
.	8aa-J
4r	8ggL
.	8ffJ
*clefF4	*
(4F 4f	8ee-L
.	8ddJ
=164	=164
4G) 4e-	4cc)
4r	4r
4G' 4d'	4f' 4b'
=165	=165
4C' 4c'	4e-' 4cc'
4r	4r
=	=
*END	*END
**kern	**kern
*staff2	*staff1
*clefG2	*clefG2
*k[]	*k[]
*M3/4	*M3/4
=-	=-
4e 4g	4r
=167	=167
(2e 2g	12r
.	(12bbL
.	12cccJ
.	12dddL
.	12bb
.	12cccJ
4c) 4e	12dddL
.	12bb
.	12cccJ)
=168	=168
(2f 2a	12r
.	(12bbL
.	12cccJ
.	12dddL
.	12bb
.	12cccJ
4e) 4g	12dddL
.	12bb
.	12cccJ)
=169	=169
(2e 2g	12r
.	(12bbL
.	12cccJ
.	12dddL
.	12bb
.	12cccJ
4d) 4f	12dddL
.	12bb
.	12cccJ)
=170	=170
4c 4e	(12dddL
.	12bb
.	12cccJ
4r	12dddL
.	12bb
.	12cccJ)
4e 4g	4ccc#
=171	=171
*^	*
(4a	2f 2a	2ddd
4dd	.	.
.	.	16ccc#Q
.	.	16dddQ
4cc#)	4e 4g	4eee
=172	=172	=172
.	.	16dddQ
.	.	16eeeQ
4dd	4d 4f	(8fffL
.	.	8eeeJ)
4r	4r	(8dddL
.	.	8cccJ)
4r	4r	(8bbL
.	.	8aaJ)
*clefF4	*clefF4	*
=173	=173	=173
(4A	2.F	(8ggL
.	.	8ffJ)
4d	.	(8eeL
.	.	8ddJ)
4f)	.	(8gg#L
.	.	8aaJ)
=174	=174	=174
(4e	2G	(4cc
4d)	.	4b)
*v	*v	*
=	=
*END	*END
**kern	**kern
*staff2	*staff1
*clefF4	*clefG2
*k[]	*k[]
*M3/4	*M3/4
=-	=-
4B 4d	4r
=175	=175
2B 2d	12r
.	(12ccc#L
.	12dddJ
.	12eeeL
.	12ccc#
.	12dddJ)
(4B 4d	12r
.	(12ccc#L
.	12dddJ)
=176	=176
2A) 2c	12r
.	(12ccc#L
.	12dddJ
.	12eeeL
.	12ccc#
.	12dddJ)
(4A 4c	12r
.	(12ccc#L
.	12dddJ)
=177	=177
4F#) 4A	12r
.	(12ccc#L
.	12dddJ)
(4F# 4A	12r
.	(12ccc#L
.	12dddJ)
4G 4B-	12r
.	(12ccc#L
.	12dddJ)
=178	=178
4G# 4B	12r
.	(12ccc#L
.	12dddJ)
4A) 4c	12r
.	(12ccc#L
.	12dddJ)
(4C	12r
.	(12eeeL
.	12ff#J)
=179	=179
*^	*
4BB	2.BB	12r
.	.	(12ggL
.	.	12bbJ)
4D	.	12r
.	.	(12ddL
.	.	12ggJ)
4G	.	12r
.	.	(12bL
.	.	12ddJ)
=180	=180	=180
4C	2.C	12r
.	.	(12eeL
.	.	12ggJ)
4E	.	12r
.	.	(12ccL
.	.	12eeJ)
4A)	.	12r
.	.	(12aL
.	.	12ccJ)
=181	=181	=181
4r	2.D	12r
.	.	(12bL
.	.	12ddJ)
4B	.	12r
.	.	(12gL
.	.	12bJ)
4c	.	12r
.	.	(12dL
.	.	12f#J)
*v	*v	*
=182	=182
4G 4B	8gL
.	(8ggJ
4r	8ff#L
.	8ggJ
=	=
*END	*END
**kern	**kern
*staff2	*staff1
*clefG2	*clefG2
*k[]	*k[]
*M3/4	*M3/4
=-	=-
4B 4d	8ff#L
.	8ggJ)
=183	=183
(4B 4d	12r
.	(12ff#L
.	12ggJ)
4c# 4e	12r
.	(12ff#L
.	12ggJ)
4d 4f	12r
.	(12ff#L
.	12ggJ)
=184	=184
4e) 4g	12r
.	(12ff#L
.	12ggJ
4r	12aaL
.	12ff#
.	12ggJ)
4r	([4eee
=185	=185
2.c# 2.e 2.a	8eeeL]
.	8dddJ
.	8ccc#L
.	8bb-J
.	8aaL
.	8ggJ)
=186	=186
4d 4f 4a	(4ee
4r	4ff)
4d 4f	4ff
=187	=187
(4d 4f	12r
.	(12eeL
.	12ffJ)
4B) 4d	12r
.	(12eeL
.	12ffJ)
4B 4d	12r
.	(12eeL
.	12ffJ)
=188	=188
*^	*
4d 4f	4r	12r
.	.	(12eeL
.	.	12ffJ)
4G	2G	(8fffL
.	.	8dddJ)
4d 4f	.	8bb'L
.	.	8ff'J
=189	=189	=189
4c 4e	4r	12r
.	.	(12dd#L
.	.	12eeJ)
4G	2G	(8eeeL
.	.	8cccJ)
4c 4e	.	8gg'L
.	.	8ee'J
=190	=190	=190
4B 4d	4G	8dd'L
.	.	8ee'J
4r	4r	8ff'L
.	.	8gg'J
4r	4r	8aa'L
.	.	8bb'J
*v	*v	*
=	=
*END	*END
**kern	**kern
*staff2	*staff1
*clefG2	*clefG2
*k[]	*k[]
*M3/4	*M3/4
=191	=191
(2e 2g	12r
.	(12bbL
.	12cccJ
.	12dddL
.	12bb
.	12cccJ
4c) 4e	12dddL
.	12bb
.	12cccJ)
=192	=192
(2f 2a	12r
.	(12bbL
.	12cccJ
.	12dddL
.	12bb
.	12cccJ
4e) 4g	12dddL
.	12bb
.	12cccJ)
=193	=193
(2e 2g	12r
.	(12bbL
.	12cccJ
.	12dddL
.	12bb
.	12cccJ
4d) 4f	12dddL
.	12bb
.	12cccJ)
=194	=194
4c 4e	(12dddL
.	12bb
.	12cccJ
4r	12dddL
.	12bb
.	12cccJ)
*clefF4	*
(4E 4G 4B- 4c#	4ccc#
=195	=195
4F) 4A 4d	4ddd
.	16ccc#Q
.	16dddQ
4r	4eee
.	16dddQ
.	16eeeQ
4r	4fff
=196	=196
2.G 2.d 2.f	8r
.	(16gLL
.	16aJJ
.	16bLL
.	16cc
.	16dd
.	16eeJJ
.	16ggLL
.	16ff
.	16dd
.	16bJJ)
=197	=197
([2.c 2.f	(4.dd
.	16cc#LL
.	16ddJJ
.	16cc#LL
.	16dd
.	16ee
.	16ddJJ)
=198	=198
4c]) 4e	4cc
4r	4r
=	=
*END	*END
**kern	**kern
*staff2	*staff1
*clefF4	*clefF4
*k[]	*k[]
*M3/4	*M3/4
=-	=-
8.CC'L 8.C'	8.G'L 8.c' 8.e'
16CC'Jk 16C'	16G'Jk 16c' 16e'
=200	=200
4CC' 4C'	4G' 4c' 4e'
4r	4r
8.CC'L 8.C'	8.E'L 8.G' 8.c'
16CC'Jk 16C'	16E'Jk 16G' 16c'
=201	=201
4CC' 4C'	4A' 4c' 4f'
4r	4r
8.CC'L 8.C'	8.G'L 8.c' 8.e'
16CC'Jk 16C'	16G'Jk 16c' 16e'
=202	=202
4CC' 4C'	4G' 4c' 4e'
4r	4r
8.CC'L 8.C'	8.F'L 8.A-' 8.B' 8.d'
16CC'Jk 16C'	16F'Jk 16A-' 16B' 16d'
=203	=203
*	*^
4CC' 4C'	4E' 4G' 4c'	2r
4r	4r	.
*clefG2	*clefG2	*clefG2
*	*v	*v
(16cLL	8r
16eJJ)	.
8r	(16ccLL
.	16eeJJ)
=204	=204
(16dLL	8r
16fJJ)	.
8r	(16ddLL
.	16ffJJ)
(16eLL	8r
16gJJ)	.
8r	(16eeLL
.	16ggJJ)
(16fLL	8r
16aJJ)	.
8r	(16ffLL
.	16aaJJ)
=205	=205
(16gLL	8r
16bJJ)	.
8r	(16ggLL
.	16bbJJ)
(16aLL	8r
16ccJJ)	.
8r	(16aaLL
.	16cccJJ)
(16bLL	8r
16ddJJ)	.
8r	(16bbLL
.	16dddJJ)
=206	=206
(16ccLL	8r
16eeJJ)	.
8r	(16cccLL
.	16eeeJJ)
(16ddLL	8r
16ffJJ)	.
8r	(16dddLL
.	16fffJJ)
(16ccLL	8r
16eeJJ)	.
8r	(16cccLL
.	16eeeJJ)
=207	=207
4g 4dd	4bb 8ddd
4r	4r
=	=
*END	*END
**kern	**kern
*staff2	*staff1
*clefF4	*clefF4
*k[]	*k[]
*M3/4	*M3/4
=-	=-
8.GGG'L 8.GG'	8.G'L 8.B' 8.d'
16GGG'Jk 16GG'	16G'Jk 16B' 16d'
=208	=208
4GGG' 4GG'	4G' 4B' 4d'
4r	4r
8.GGG'L 8.GG'	8.G'L 8.B' 8.d'
16GGG'Jk 16GG'	16G'Jk 16B' 16d'
=209	=209
4EE' 4E'	4G' 4B-' 4c#'
4r	4r
8.FFF#'L 8.FF#'	8.D#'L 8.A' 8.c'
16FFF#'Jk 16FF#'	16D#'Jk 16A' 16c'
=210	=210
4FFF#' 4FF#'	4D#' 4A' 4c'
4r	4r
8.D#'L	8.F#'L 8.A' 8.c'
16D#'Jk	16F#'Jk 16A' 16c'
=211	=211
4D#'	4F#' 4A' 4B'
4r	4r
*clefG2	*clefG2
(16d#LL	8r
16f#JJ)	.
8r	(16dd#LL
.	16ff#JJ)
=212	=212
(16eLL	8r
16gJJ)	.
8r	(16eeLL
.	16ggJJ)
(16f#LL	8r
16aJJ)	.
8r	(16ff#LL
.	16aaJJ)
(16g#LL	8r
16bJJ)	.
8r	(16gg#LL
.	16bbJJ)
=213	=213
(16aLL	8r
16ccJJ)	.
8r	(16aaLL
.	16cccJJ)
(16bLL	8r
16ddJJ)	.
8r	(16bbLL
.	16dddJJ)
(16ccLL	8r
16eeJJ)	.
8r	(16cccLL
.	16eeeJJ)
=214	=214
(16dLL	8r
16gJJ)	.
8r	(16ddLL
.	16bbJJ)
(16dLL	8r
16gJJ)	.
8r	(16ddLL
.	16bbJJ)
(16dLL	8r
16f#JJ)	.
8r	(16ccLL
.	16aaJJ)
=215	=215
4G 4g	4b 4gg
4r	4r
=	=
*END	*END
**kern	**kern
*staff2	*staff1
*clefF4	*clefG2
*k[b-e-a-]	*k[b-e-a-]
*M3/4	*M3/4
=-	=-
8.GG'L 8.G'	8.B'L 8.g'
16GG'Jk 16G'	16B'Jk 16g'
=216	=216
4GG' 4G'	4B' 4g'
4EE' 4E'	4G' 4c#' 4g'
4DD' 4D'	4B-' 4d' 4g'
=217	=217
4CC#' 4C#'	4A' 4e' 4g'
4r	4r
(16c#LL	8r
16eJJ)	.
8r	(16eeLL 16gg
.	16aJJ)
=218	=218
(16c#LL	8r
16eJJ)	.
8r	(16eeLL 16gg
.	16aJJ)
(16dLL	8r
16fJJ)	.
8r	(16ddLL 16ff
.	16aJJ)
(16eLL	8r
16gJJ)	.
8r	(16cc#LL 16ee
.	16aJJ)
=219	=219
4d 4f	4dd 4ff
4r	4r
8.DD'L 8.D'	8.F'L 8.A' 8.f'
16DD'Jk 16D'	16F'Jk 16A' 16f'
=220	=220
4DD' 4D'	4F' 4A' 4f'
4DD' 4D'	4F' 4B' 4f'
4CC' 4C'	4A-' 4c' 4f'
=221	=221
4BBB' 4BB'	4G' 4d' 4f'
4r	4r
(16dLL	8r
16fJJ)	.
8r	(16bLL 16dd
.	16gJJ)
=222	=222
(16cLL	8r
16eJJ)	.
8r	(16ccLL 16ee
.	16gJJ)
(16BLL	8r
16dJJ)	.
8r	(16ddLL 16ff
.	16gJJ)
(16cLL	8r
16eJJ)	.
8r	(16ccLL 16ee
.	16gJJ)
=223	=223
4G 4d	4b 4dd
4r	4r
=	=
*END	*END
**kern	**kern
*staff2	*staff1
*clefF4	*clefF4
*k[b-e-a-]	*k[b-e-a-]
*M3/4	*M3/4
=-	=-
8.CC'L 8.C'	8.G'L 8.c' 8.e'
16CC'Jk 16C'	16G'Jk 16c' 16e'
=224	=224
4CC' 4C'	4G' 4c' 4e'
4r	4r
8.CC'L 8.C'	8.E'L 8.G' 8.c'
16CC'Jk 16C'	16E'Jk 16G' 16c'
=225	=225
4CC' 4C'	4A' 4c' 4f'
4r	4r
8.CC'L 8.C'	8.G'L 8.c' 8.e'
16CC'Jk 16C'	16G'Jk 16c' 16e'
=226	=226
4CC' 4C'	4G' 4c' 4e'
4r	4r
8.CC'L 8.C'	8.F'L 8.A-' 8.B' 8.d'
16CC'Jk 16C'	16F'Jk 16A-' 16B' 16d'
=227	=227
4CC' 4C'	4E' 4G' 4c'
4r	4r
*	*clefG2
(16CLL	8r
16cJJ)	.
8r	(16eeLL
.	16eJJ)
=228	=228
(16DLL	8r
16dJJ)	.
8r	(16ffLL
.	16fJJ)
(16ELL	8r
16eJJ)	.
8r	(16ggLL
.	16gJJ)
(16FLL	8r
16fJJ)	.
8r	(16aaLL
.	16aJJ)
*clefG2	*
=229	=229
(16GLL	8r
16gJJ)	.
8r	(16bbLL
.	16bJJ)
(16ALL	8r
16aJJ)	.
8r	(16cccLL
.	16ccJJ)
(16BLL	8r
16bJJ)	.
8r	(16dddLL
.	16ddJJ)
=230	=230
(16cLL	8r
16ccJJ)	.
8r	(16eeeLL
.	16eeJJ)
(16dLL	8r
16ddJJ)	.
8r	(16fffLL
.	16ffJJ)
(16GLL	8r
16gJJ)	.
8r	(16bbLL
.	16ffJJ)
*clefF4	*
=231	=231
4C 4c	4ee 4ccc
4r	4r
=	=
*END	*END
**kern	**kern
*staff2	*staff1
*clefF4	*clefF4
*k[]	*k[]
*M3/4	*M3/4
=-	=-
4r	4G 4c 4e
=233	=233
8r	2G 2c 2e
(8BBL	.
8C)	.
8C'J	.
8C'L	4E 4G 4c
8C'J	.
=234	=234
8r	2A 2c 2f
(8BBBL	.
8CC)	.
8CC'J	.
8CC'L	4G 4c 4e
8CC'J	.
*clefG2	*
=235	=235
8r	2G 2c 2e
(8bL	.
8cc)	.
8cc'J	.
8cc'L	4F 4G 4d
8cc'J	.
=236	=236
8r	4E 4G 4c
(8bbL	.
8ccc)	4r
8ccc'J	.
8ccc'L	4E 4G 4c
8ccc'J	.
=237	=237
8r	2G 2B 2d
(8ff#L	.
8gg)	.
8gg'J	.
8gg'L	4G 4c 4e
8gg'J	.
=238	=238
8r	2G 2d 2f
(8f#L	.
8g)	.
8g'J	.
8g'L	4G 4c 4e
8g'J	.
=239	=239
8r	[2.G [2.B [2.d
*clefF4	*
(8FF#L	.
8GG)	.
8GG'J	.
8GG'L	.
8GG'J	.
=240	=240
(8GGL	2G] 2B] 2d]
8BB	.
8D	.
8BBJ)	.
=	=
*END	*END
**kern	**kern
*staff2	*staff1
*clefF4	*clefF4
*k[]	*k[]
*M3/4	*M3/4
=-	=-
4GG	4G 4B 4d
=241	=241
8r	2G# 2B 2d
(8DD#L	.
8EE)	.
8EE'	.
8EE'	4G# 4B 4d
8EE'J	.
=242	=242
8r	2E 2A 2c
(8GG#L	.
8AA)	.
8AA'	.
8AA'	4E 4A 4c
8AA'J	.
=243	=243
8r	[2.F# [2.A
(8C#L	.
8D)	.
8D'	.
8D'	.
8D'J	.
=244	=244
(8C#L	2F#] 2A]
8DJ	.
8CL	.
8DJ	.
8BBL	4G 4B
8DJ)	.
=245	=245
8r	2E 2A 2c
(8BBBL	.
8CC)	.
8CC'	.
8CC'	4E 4A 4c
8CC'J	.
=246	=246
8r	2C 2F# 2A
(8CC#L	.
8DD)	.
8DD'J	.
8DD'L	4C 4F# 4A
8DD'J	.
=247	=247
8r	2.C 2.D 2.A
(8FFF#L	.
8GGG)	.
(8BBB	.
8DD)	.
(8FF#J	.
=248	=248
4GG)	4BB 4D 4G
4GGG	4r
=	=
*END	*END
**kern	**kern
*staff2	*staff1
*clefF4	*clefG2
*k[]	*k[]
*M3/4	*M3/4
4r	4B 4d 4g
=249	=249
8r	2B 2d 2g
(8F#L	.
8G)	.
8G'	.
8G'	4B 4d 4g
8G'J	.
=250	=250
8r	2B 2e 2g
(8D#L	.
8E)	.
8E'	.
8E'	4B 4e 4g
8E'J	.
*clefG2	*
=251	=251
8r	2.A 2.e 2.g
(8b#L	.
8cc#)	.
8cc#'	.
8cc#'	.
8cc#'J	.
=252	=252
8r	2A 2d 2f
(8cc#L	.
8dd)	.
8dd'	.
*	*clefF4
8dd'	4A 4d 4f
8dd'J	.
*clefF4	*
=253	=253
8r	2A 2d 2f
(8C#L	.
8D)	.
8D'	.
8D'	4A 4d 4f
8D'J	.
=254	=254
8r	2G 2d 2f
(8AA#L	.
8BB)	.
8BB'	.
8BB'	4G 4d 4f
8BB'J	.
=255	=255
8r	2G 2c 2e
(8BBL	.
8C)	.
8C'	.
8C'	4E 4G 4c
8C'J	.
=256	=256
8r	4G 4B 4d
(8GGL	.
8FF#	4r
8FF	.
=	=
*END	*END
**kern	**kern
*staff2	*staff1
*clefF4	*clefG2
*k[]	*k[]
*M3/4	*M3/4
=-	=-
8EE	4G 4c 4e
8DDJ)	.
=257	=257
8r	2G 2c 2e
(8BBBL	.
8CC)	.
8CC'	.
8CC'	4E 4G 4c
8CC'J	.
=258	=258
8r	2A 2c 2f
(8BBL	.
8C)	.
8C'	.
8C'	4G 4c 4e
8C'J	.
*clefG2	*
=259	=259
8r	2G 2c 2e
(8bL	.
8cc)	.
8cc'	.
8cc'	4F 4G 4d
8cc'J	.
=260	=260
8r	4E 4G 4c
(8bbL	.
8ccc)	4r
8ccc'	.
8ccc'	4E 4G 4c
8ccc'J	.
=261	=261
8r	2G 2B 2d
(8ff#L	.
8gg)	.
8gg'	.
8gg'	4G 4c 4e
8gg'J	.
=262	=262
8r	2G 2d 2f
(8f#L	.
8g)	.
8g'	.
8g'	4F 4B
8g'J	.
=263	=263
8r	2.F 2.B 2.d
*clefF4	*
(8FF#L	.
8GG)	.
8GG'	.
8GG'	.
8GG'J	.
=264	=264
4CC 4C	4E 4G 4c
4r	4r
=	=
*END	*END
**kern	**kern
*staff2	*staff1
*clefF4	*clefG2
*k[]	*k[]
*M2/4	*M2/4
=-	=-
8r	8g' 8ee'
=266	=266
8CL	4g' 4ee'
8c	.
8c	8r
8cJ	8e' 8cc'
=267	=267
8CL	4a' 4ff'
8c	.
8c	8r
8cJ	8g' 8ee'
=268	=268
8gL	4ee
8c	.
8f	8.ddL
8cJ	.
.	32ccLL
.	32ddJJJ
=269	=269
8eL	4cc
8c	.
8c	8r
8cJ	8cc
=270	=270
8BL	8dd
8G	8r
8c	8.eeL
8GJ	.
.	32ddLL
.	32eeJJJ
=271	=271
8AL	8ff
8c	8r
8G	8.eeL
8cJ	.
.	32ddLL
.	32eeJJJ
=272	=272
8FL	8dd
8c	8r
8F#	8dd
8cJ	8r
=273	=273
8GL	4dd
8B	.
8d	8r
=	=
*END	*END
**kern	**kern
*staff2	*staff1
*clefG2	*clefG2
*k[]	*k[]
*M2/4	*M2/4
=-	=-
8gJ	8dd 8ddd
=274	=274
4r	(8cc#L 8ccc#
.	8ddJ) 8ddd
4b'	8r
.	8dd' 8ddd'
=275	=275
4r	(8ddL 8ddd
.	8ccJ) 8ccc
4a'	8r
.	8cc' 8ccc'
=276	=276
4r	(8bL 8bb
.	8aJ) 8aa
4d 4f#	8r
.	8a' 8aa'
=277	=277
4d 4f#	8r
.	8a 8aa
4c 4f#	8r
.	8a 8aa
=278	=278
8GL	8bb
8g	8r
8B	8.ggL
8bJ	.
.	32ff#LL
.	32ggJJJ
=279	=279
8cL	8ee
8g	8r
8e	8.ccL
8gJ	.
.	32bLL
.	32ccJJJ
=280	=280
8dL	8b
8g	8r
8d	8.aL
8f#J	.
.	32gLL
.	32aJJJ
=281	=281
8G	4g
(8gL	.
8f#	8r
8fJ)	8g
=282	=282
*END	*END
**kern	**kern
*staff2	*staff1
*clefG2	*clefG2
*k[]	*k[]
*M2/4	*M2/4
=	=
*^	*
(4e	2c	(16eeLL
.	.	16cc
.	.	16b
.	.	16ccJJ
4g)	.	16ddLL
.	.	16cc
.	.	16b
.	.	16ccJJ)
=283	=283	=283
(4a	2c	(16ffLL
.	.	16cc
.	.	16b
.	.	16ccJJ)
4g)	.	(16eeLL
.	.	16cc
.	.	16b
.	.	16ccJJ)
=284	=284	=284
(4g	2c	(16eeLL
.	.	16cc
.	.	16b
.	.	16ccJJ)
4f)	.	(16ddLL
.	.	16b
.	.	16a
.	.	16bJJ)
=285	=285	=285
4e	4c	(16ccLL
.	.	16g
.	.	16f#
.	.	16gJJ
4r	4r	16aLL
.	.	16g
.	.	16f#
.	.	16gJJ)
*v	*v	*
*clefF4	*
=286	=286
4B'	16dLL
.	16g
.	16dd
.	16gJJ
4c'	16eLL
.	16g
.	16ee
.	16gJJ
=287	=287
4A'	16fLL
.	16cc
.	16ff
.	16ccJJ
4E'	16gLL
.	16cc
.	16gg
.	16ccJJ
=288	=288
4F'	16aLL
.	16cc
.	16aa
.	16ccJJ
4D'	16aLL
.	16dd
.	16ff
.	16ddJJ
=289	=289
8r	4g 4b 4dd
8GL	.
8gJ	8r
=	=
*END	*END
**kern	**kern
*staff2	*staff1
*clefF4	*clefG2
*k[]	*k[]
*M2/4	*M2/4
=-	=-
8r	8dd
=290	=290
8BBL	16cc#LL
.	16dd
8DJ	16ee
.	16ddJJ
8GL	16dddLL
.	16dd
8BJ	16ddd
.	16ddJJ
=291	=291
8AAL	16bLL
.	16cc
8EJ	16dd
.	16ccJJ
8GL	16cccLL
.	16cc
8AJ	16ccc
.	16ccJJ
=292	=292
8DL	16bLL
.	16cc
8F#J	16dd
.	16ccJJ
8AL	16cccLL
.	16cc
8dJ	16ccc
.	16ccJJ
=293	=293
8f#L	16cccLL
.	16bb
8aJ	16aa
.	16ggJJ
8dL	16ff#LL
.	16ee
8f#J	16dd
.	16ccJJ
=294	=294
8GL	16bLL
.	16cc
8gJ	16b
.	16aJJ
8FL	16bLL
.	16g
8fJ	16a
.	16bJJ
=295	=295
8EL	16ccLL
.	16dd
8eJ	16ee
.	16ff#JJ
8CL	16ggLL
.	16ee
8cJ	16dd
.	16ccJJ
=296	=296
8DL	16bLL
.	16dd
8dJ	16g
.	16bJJ
8DDL	16aLL
.	16cc
8DJ	16f#
.	16aJJ
=297	=297
8r	4g
8GGL	.
8GJ	8r
=	=
*END	*END
**kern	**kern
*staff2	*staff1
*clefG2	*clefG2
*k[]	*k[]
*M2/4	*M2/4
=-	=-
8r	8b' 8gg'
=298	=298
8r	8b'L 8gg'
8g'L	8b'J 8gg'
8e'	8cc#'L 8gg'
8d'J	8dd'J 8gg'
=299	=299
8c#'	4ee 4gg
8A'L	.
8a'J	8r
8r	8ee 8gg
=300	=300
2r	(8eeL 8gg
.	8ddJ) 8ff
.	(8ddL 8ff
.	8cc#J) 8ee
=301	=301
8r	4dd 4ff
(8g#L	.
8a)	8r
8g'J	8ff'
=302	=302
8f'L	8ff'L
8e'J	8a'J 8ff'
8d'L	8b'L 8ff'
8c'J	8cc'J 8ff'
=303	=303
8B'L	4dd 4ff
8A'J	.
8G'L	8r
8B'J	8dd' 8ff'
=304	=304
8c'L	8cc'L 8ee'
8d'J	8b'J 8dd'
8e'L	8g'L 8cc'
8c'J	8cc'J 8ee'
=305	=305
8G'L	4b 4dd
(8f#	.
8gJ)	8r
=	=
*END	*END
**kern	**kern
*staff2	*staff1
*clefF4	*clefG2
*k[]	*k[]
*M2/4	*M2/4
=-	=-
8r	8g 8ee
=306	=306
8CL	4g 4ee
8c	.
8c	8r
8cJ	8e 8cc
=307	=307
8CL	4a 4ff
8c	.
8c	8r
8cJ	8g 8ee
=308	=308
8gL	4ee
8c	.
8f	8.ddL
8cJ	.
.	32ccLL
.	32ddJJJ
=309	=309
8eL	4cc
8c	.
8c	8r
8cJ	8cc
=310	=310
8BL	4dd
8G	.
8c	8.eeL
8GJ	.
.	32ddLL
.	32eeJJJ
=311	=311
8AL	4ff
8c	.
8G	8r
8cJ	8ee
=312	=312
.	eeQ
8FL	(8ddL
8c	8ccJ)
8G	8dd'L
8BJ	8ee'J
=313	=313
8r	4cc
8CL	.
8cJ	8r
=	=
*END	*END
**kern	**kern
*staff2	*staff1
*clefF4	*clefG2
*k[]	*k[]
*M2/4	*M2/4
=-	=-
8r	16gLL
.	16ggJJ
=314	=314
8r	16bLL
.	16gg
*clefG2	*
8gL	16b
.	16ggJJ
8e	16cc#LL
.	16gg
8dJ	16dd
.	16ggJJ
=315	=315
4c#	16eeLL
.	16a
.	16cc#
.	16eeJJ
4r	16ggLL
.	16aa
.	16ccc#
.	16aaJJ
=316	=316
4c# 4a	16eeeLL
.	16ddd
.	16ccc#
.	16bbJJ
4c# 4a	16aaLL
.	16gg
.	16ff
.	16eeJJ
=317	=317
4d 4a	16ggLL
.	16ff
.	16ee
.	16ffJJ
4r	16eeLL
.	16ff
.	16gg
.	16ffJJ
=318	=318
8r	16aLL
.	16ff
8fL	16a
.	16ffJJ
8d	16bLL
.	16ff
8cJ	16cc
.	16ffJJ
=319	=319
4B 4g	16ddLL
.	16bb
.	16ddd
.	16cccJJ
4r	16bbLL
.	16aa
.	16gg
.	16ffJJ
=320	=320
4c 4g	16eeLL
.	16gg
.	16ccc
.	16bbJJ
4r	16aaLL
.	16gg
.	16ff
.	16eeJJ
*clefF4	*
=321	=321
4G 4B	16ddLL
.	16g
.	16f#
.	16gJJ
4r	16aLL
.	16b
.	16cc
.	16ddJJ
=322	=322
*END	*END
**kern	**kern
*staff2	*staff1
*clefF4	*clefG2
*k[]	*k[]
*M2/4	*M2/4
=	=
*^	*
8r	2C	16eeLL
.	.	16cc
8c	.	16b
.	.	16ccJJ
8EL	.	16ddLL
.	.	16cc
8cJ	.	16b
.	.	16ccJJ
=323	=323	=323
8AL	2C	16ffLL
.	.	16cc
8cJ	.	16b
.	.	16ccJJ
8GL	.	16eeLL
.	.	16cc
8cJ	.	16b
.	.	16ccJJ
=324	=324	=324
8GL	2C	16eeLL
.	.	16cc
8cJ	.	16b
.	.	16ccJJ
8FL	.	16ddLL
.	.	16b
8cJ	.	16a
.	.	16bJJ
=325	=325	=325
8EL	2C	16ccLL
.	.	16g
8cJ	.	16f#
.	.	16gJJ
8GL	.	16aLL
.	.	16g
8cJ	.	16f#
.	.	16gJJ
*v	*v	*
=326	=326
8BBL	16dLL
.	16g
8BJ	16dd
.	16gJJ
8CL	16eLL
.	16g
8cJ	16ee
.	16gJJ
=327	=327
8AAL	16fLL
.	16cc
8AJ	16ff
.	16ccJJ
8FFL	16gLL
.	16dd
8FJ	16ff
.	16ddJJ
=328	=328
8GGL	16fLL
.	16cc
8GJ	16dd
.	16ccJJ
8GGGL	16fLL
.	16b
8GGJ	16dd
.	16bJJ
=329	=329
2r;	2r;
=330	=330
*END	*END
**kern	**kern
*staff2	*staff1
*clefF4	*clefG2
*k[]	*k[]
*M2/4	*M2/4
=331	=331
12AA-L	2r
12E-	.
12A-J	.
12AA-L	.
12E-	.
12A-J	.
=332	=332
12AA-L	4r
12E-	.
12A-J	.
12AA-L	8r
12E-	.
.	8c 8cc
12A-J	.
=333	=333
12AA-L	(4c 4cc
12E-	.
12A-J	.
12AA-L	4a-
12C	.
12A-J	.
=334	=334
12AA-L	4d- 4dd-
12F	.
12A-J	.
12r	4c 4cc
12AA-L	.
12A-J	.
=335	=335
12AA-L	4c 4cc
12E-	.
12A-J	.
12AA-L	4B- 4b-
12D-	.
12GJ	.
=336	=336
12AA-L	2A-) 2a-
12C	.
12E-J	.
12AA-L	.
12C	.
12E-J	.
=337	=337
12GGL	(4B- 4b-
12E-	.
12GJ	.
12AA-L	4c 4cc
12E-	.
12A-J	.
=338	=338
12FL	4d- 4dd-
12A-	.
12d-J	.
12E-L	4e- 4ee-
12A-	.
12cJ	.
=339	=339
12D-L	4f 4ff
12A-	.
12d-J	.
12FL	4d- 4dd-
12A-	.
12d-J	.
=340	=340
12E-L	2b-)
12G	.
12B-J	.
12E-L	.
12G	.
12B-J	.
=341	=341
*END	*END
**kern	**kern
*staff2	*staff1
*clefF4	*clefG2
*k[]	*k[]
*M2/4	*M2/4
=	=
12AA-L	(4c 4cc
12E-	.
12A-J	.
12AA-L	4A- 4a-
12C	.
12GJ	.
=342	=342
12AA-L	4d- 4dd-
12F	.
12A-J	.
12AA-L	4c 4cc
12E-	.
12A-J	.
=343	=343
12AA-L	4c 4cc
12E-	.
12A-J	.
12AA-L	4B-) 4b-
12D-	.
12GJ	.
=344	=344
12AA-L	(2A- 2a-
12C	.
12E-J	.
12AA-L	.
12C	.
12E-J	.
=345	=345
12FFL	2A 2a
12C	.
12E-J	.
12FFL	.
12C	.
12E-J	.
=346	=346
12BB-L	2B- 2b-
12D-	.
12FJ	.
12BB-L	.
12D-	.
12FJ	.
=347	=347
12GGL	2B 2b
12D	.
12FJ	.
12GGL	.
12D	.
12FJ	.
=348	=348
12GGL	2f) 2b 2ff
12D	.
12FJ	.
12GGL	.
12D	.
12FJ	.
=349	=349
*END	*END
**kern	**kern
*staff2	*staff1
*clefF4	*clefG2
*k[]	*k[]
*M2/4	*M2/4
=	=
16CLL	16eLL
16E	16g
16G	16cc
16cJJ	16eeJJ
16CLL	16cLL
16E	16e
16G	16g
16cJJ	16ccJJ
=350	=350
16CLL	16fLL
16F	16a
16A	16cc
16cJJ	16ffJJ
16CLL	16eLL
16E	16g
16G	16cc
16cJJ	16eeJJ
=351	=351
16CLL	16eLL
16E	16g
16G	16cc
16cJJ	16eeJJ
16CLL	16dLL
16F	16f
16G	16g
16BJJ	16ddJJ
=352	=352
16CLL	16cLL
16E	16e
16G	16g
16cJJ	16ccJJ
16CLL	16cLL
16E	16e
16G	16g
16cJJ	16ccJJ
=353	=353
16BBLL	16dLL
16D	16g
16G	16b
16BJJ	16ddJJ
16CLL	16eLL
16E	16g
16G	16cc
16cJJ	16eeJJ
=354	=354
16AALL	16fLL
16C	16a
16F	16cc
16AJJ	16ffJJ
16FFLL	16fLL
16C	16a
16D	16dd
16FJJ	16ffJJ
=355	=355
16GGLL	16dLL
16C	16g
16D	16cc
16GJJ	16ddJJ
16GGLL	16dLL
16BB	16g
16D	16b
16GJJ	16ddJJ
=356	=356
16CLL	16eLL
16E	16g
16G	16cc
16cJJ	16eeJJ
16CLL	16cLL
16E	16e
16G	16g
16cJJ	16ccJJ
=357	=357
16BBLL	16dLL
16D	16g
16G	16b
16BJJ	16ddJJ
16CLL	16eLL
16E	16g
16G	16cc
16cJJ	16eeJJ
=358	=358
16AALL	16fLL
16C	16a
16F	16cc
16AJJ	16ffJJ
16FFLL	16fLL
16C	16a
16D	16dd
16FJJ	16ffJJ
=359	=359
16GGLL	16dLL
16C	16g
16D	16cc
16GJJ	16ddJJ
16GGLL	16dLL
16BB	16g
16D	16b
16GJJ	16ddJJ
=360	=360
16CCLL	8cc'L
16EE	.
16GG	(16eL
16CJJ	16gJJ
16CCLL	16ccLL
16EE	16ee
16GG	16dd
16CJJ	16ccJJ)
=361	=361
16CCLL	8r
16DD	.
16FF	(16bLL
16BBJJ	16ddJJ
16CCLL	16ffLL
16DD	16aa
16FF	16gg
16BBJJ	16ffJJ)
=362	=362
16CCLL	8r
16EE	.
16GG	(16eeLL
16CJJ	16ggJJ
16CCLL	16cccLL
16EE	16eee
16GG	16ddd
16CJJ	16cccJJ
=363	=363
16CCLL	16bbLL
16FF	16aa
16GG	16gg
16DJJ	16ffJJ
16CCLL	16eeLL
16FF	16dd
16GG	16cc
16DJJ	16bJJ)
=364	=364
16CCLL	8cc'L
16EE	.
16GG	(16eL
16CJJ	16gJJ
16CCLL	16ccLL
16EE	16ee
16GG	16dd
16CJJ	16ccJJ)
=365	=365
16CCLL	8r
16DD	.
16FF	(16bLL
16BBJJ	16ddJJ
16CCLL	16ffLL
16DD	16aa
16FF	16gg
16BBJJ	16ffJJ)
=366	=366
16CCLL	8r
16EE	.
16GG	(16eeLL
16CJJ	16ggJJ
16CCLL	16cccLL
16EE	16eee
16GG	16ddd
16CJJ	16cccJJ
=367	=367
16CCLL	16bbLL
16FF	16aa
16GG	16gg
16DJJ	16ffJJ
16CCLL	16eeLL
16FF	16dd
16GG	16cc
16DJJ	16bJJ)
=368	=368
16CCLL	8cc'L
16EE	.
16GG	(16eL
16CJJ	16gJJ
16CCLL	16ccLL
16EE	16ee
16GG	16dd
16CJJ	16ccJJ
=369	=369
16CCLL	16bLL
16FF	16a
16GG	16g
16DJJ	16fJJ
16CCLL	16eLL
16FF	16d
16GG	16c
16DJJ	16BJJ)
=370	=370
4CC 4EE 4GG 4C	16cLL
.	16G
.	16E
.	16GJJ
4r	16cLL
.	16e
.	16g
.	16eJJ
=371	=371
4CC 4EE 4GG 4C	16cLL
.	16G
.	16E
.	16GJJ
4r	16cLL
.	16e
.	16g
.	16eJJ
=372	=372
4CC 4EE 4GG 4C	4c
4r	4r
==	==
*-	*-
